source/img/topmenu-phone.svg

<svg enable-background="new 0 0 18 18" viewBox="0 0 18 18" xmlns="http://www.w3.org/2000/svg"><g fill="#231f20"><path d="m12.6 18c-.3 0-.5 0-.8 0-3.6-.4-6.2-2.1-8.1-4.3-1.9-2.1-3.4-4.9-3.7-8.7 0-.3 0-.7 0-1 .1-.7.4-1.1.8-1.5.4-.5 1.2-1.1 1.8-1.2.5 0 1.3.3 1.6.8.3.4.4 1.2.6 1.8.1.6.4 1.4.4 2-.2.9-1.3 1.3-1.7 1.9 1.1 2.8 3 4.8 5.4 6.2.6-.3 1.2-1.4 2-1.4.3 0 .7.2 1 .3s.6.2 1 .4c.5.2 1.4.5 1.7.9s.5 1.2.4 1.7c-.1.8-1.6 1.8-2.4 2.1z"/><path d="m9.1 1.1c4.3 0 7.8 3.6 7.8 8h1.1c0-5-4-9.1-8.9-9.1z"/><path d="m9.1 6.9v1.1c.6 0 1 .5 1 1.1h1.1c0-1.2-.9-2.2-2.1-2.2z"/><path d="m9.1 4.6c2.4 0 4.4 2 4.4 4.5h1.2c0-3.1-2.5-5.7-5.5-5.7v1.2z"/></g></svg>

<?xml version="1.0" encoding="utf-8"?>
<!-- Generator: Adobe Illustrator 21.0.0, SVG Export Plug-In . SVG Version: 6.00 Build 0)  -->
<svg version="1.1" id="Layer_1" xmlns="http://www.w3.org/2000/svg" xmlns:xlink="http://www.w3.org/1999/xlink" x="0px" y="0px"
	 viewBox="0 0 18 18" style="enable-background:new 0 0 18 18;" xml:space="preserve">
<style type="text/css">
	.st0{fill:#231F20;}
</style>
<g>
	<g id="UrwUhy_1_">
		<g>
			<path class="st0" d="M12.6,18c-0.3,0-0.5,0-0.8,0c-3.6-0.4-6.2-2.1-8.1-4.3C1.8,11.6,0.3,8.8,0,5c0-0.3,0-0.7,0-1
				c0.1-0.7,0.4-1.1,0.8-1.5C1.2,2,2,1.4,2.6,1.3c0.5,0,1.3,0.3,1.6,0.8c0.3,0.4,0.4,1.2,0.6,1.8c0.1,0.6,0.4,1.4,0.4,2
				C5,6.8,3.9,7.2,3.5,7.8c1.1,2.8,3,4.8,5.4,6.2c0.6-0.3,1.2-1.4,2-1.4c0.3,0,0.7,0.2,1,0.3c0.3,0.1,0.6,0.2,1,0.4
				c0.5,0.2,1.4,0.5,1.7,0.9c0.3,0.4,0.5,1.2,0.4,1.7C14.9,16.7,13.4,17.7,12.6,18z"/>
		</g>
	</g>
	<path class="st0" d="M9.1,1.1c4.3,0,7.8,3.6,7.8,8H18c0-5-4-9.1-8.9-9.1L9.1,1.1z"/>
	<path class="st0" d="M9.1,6.9V8c0.6,0,1,0.5,1,1.1h1.1C11.2,7.9,10.3,6.9,9.1,6.9z"/>
	<path class="st0" d="M9.1,4.6c2.4,0,4.4,2,4.4,4.5h1.2c0-3.1-2.5-5.7-5.5-5.7V4.6L9.1,4.6z"/>
</g>
</svg>
